svgs/sharp-regular/ruler-horizontal.svg

<svg xmlns="http://www.w3.org/2000/svg" viewBox="0 0 640 512"><!--! Font Awesome Pro 6.6.0 by @fontawesome - https://fontawesome.com License - https://fontawesome.com/license (Commercial License) Copyright 2024 Fonticons, Inc. --><path d="M48 336l544 0 0-160-64 0 0 48 0 16-32 0 0-16 0-48-64 0 0 48 0 16-32 0 0-16 0-48-64 0 0 48 0 16-32 0 0-16 0-48-64 0 0 48 0 16-32 0 0-16 0-48-64 0 0 48 0 16-32 0 0-16 0-48-64 0 0 160zM0 384l0-48L0 176l0-48 48 0 544 0 48 0 0 48 0 160 0 48-48 0L48 384 0 384z"/></svg>

<svg xmlns="http://www.w3.org/2000/svg" viewBox="0 0 640 512"><!--! Font Awesome Pro 6.5.2 by @fontawesome - https://fontawesome.com License - https://fontawesome.com/license (Commercial License) Copyright 2024 Fonticons, Inc. --><path d="M48 336l544 0V176l-64 0v48 16H496V224 176l-64 0v48 16H400V224 176l-64 0v48 16H304V224 176l-64 0v48 16H208V224 176l-64 0v48 16H112V224 176l-64 0 0 160zM0 384V336 176 128H48 592h48v48V336v48H592L48 384H0z"/></svg>
